svg/Pictogram/pictograms-nps-misc-waterfowl.svg

<svg xmlns="http://www.w3.org/2000/svg" viewBox="0 0 256 256"><path d="m0 0c-.541 0-.98-.44-.98-.981v-7.522c0-.541.439-.981.98-.981h7.521c.54 0 .979.44.979.981v7.522c0 .541-.439.981-.979.981h-7.521" fill="#fff" transform="matrix(25.89783 0 0-25.89783 30.598 5.185)"/><path d="m0 0h-7.521c-.653 0-1.182-.529-1.182-1.182v-7.521c0-.652.529-1.182 1.182-1.182h7.521c.652 0 1.18.53 1.18 1.182v7.521c0 .653-.528 1.182-1.18 1.182" transform="matrix(25.89783 0 0-25.89783 225.39 0)"/><path d="m0 0l-.513.346c0 0 2.127.634 3.434.634.896 0 1.671.252 1.373.775-.299.522-.299 1.977.894 1.903 0 0 .823 0 .897-.783 0 0-.064-.289 1.018-.514 0 0 .186-.111-.15-.261 0 0-1.642.113-1.493-.298 0 0-.037-.357.514-.57.941-.364 1.884-3.378-2.045-3.089 0 0-1.539.065-2.772.775 0 0-1.409.643-1.969.793l.812.289" fill="#fff" transform="matrix(25.89783 0 0-25.89783 46.25 151.44)"/></svg>

<?xml version="1.0" encoding="UTF-8" standalone="no"?>
<!-- Created with Inkscape (http://www.inkscape.org/) -->
<svg
   xmlns:dc="http://purl.org/dc/elements/1.1/"
   xmlns:cc="http://creativecommons.org/ns#"
   xmlns:rdf="http://www.w3.org/1999/02/22-rdf-syntax-ns#"
   xmlns:svg="http://www.w3.org/2000/svg"
   xmlns="http://www.w3.org/2000/svg"
   xmlns:sodipodi="http://sodipodi.sourceforge.net/DTD/sodipodi-0.dtd"
   xmlns:inkscape="http://www.inkscape.org/namespaces/inkscape"
   width="256"
   height="256"
   id="svg8302"
   sodipodi:version="0.32"
   inkscape:version="0.46"
   version="1.0"
   sodipodi:docname="pictograms-nps-misc-waterfowl-2.svg"
   inkscape:output_extension="org.inkscape.output.svg.inkscape">
  <defs
     id="defs8304">
    <inkscape:perspective
       sodipodi:type="inkscape:persp3d"
       inkscape:vp_x="0 : 526.18109 : 1"
       inkscape:vp_y="0 : 1000 : 0"
       inkscape:vp_z="744.09448 : 526.18109 : 1"
       inkscape:persp3d-origin="372.04724 : 350.78739 : 1"
       id="perspective8310" />
  </defs>
  <sodipodi:namedview
     id="base"
     pagecolor="#ffffff"
     bordercolor="#666666"
     borderopacity="1.0"
     gridtolerance="10000"
     guidetolerance="10"
     objecttolerance="10"
     inkscape:pageopacity="0.0"
     inkscape:pageshadow="2"
     inkscape:zoom="0.7"
     inkscape:cx="61.634556"
     inkscape:cy="136.73676"
     inkscape:document-units="px"
     inkscape:current-layer="layer1"
     showgrid="false"
     inkscape:window-width="738"
     inkscape:window-height="674"
     inkscape:window-x="0"
     inkscape:window-y="198" />
  <metadata
     id="metadata8307">
    <rdf:RDF>
      <cc:Work
         rdf:about="">
        <dc:format>image/svg+xml</dc:format>
        <dc:type
           rdf:resource="http://purl.org/dc/dcmitype/StillImage" />
      </cc:Work>
    </rdf:RDF>
  </metadata>
  <g
     inkscape:label="Layer 1"
     inkscape:groupmode="layer"
     id="layer1">
    <g
       id="g2622"
       transform="matrix(25.897825,0,0,-25.897825,30.598177,5.1847446)">
      <path
         d="M 0,0 C -0.541,0 -0.98,-0.44 -0.98,-0.981 L -0.98,-8.503 C -0.98,-9.044 -0.541,-9.484 0,-9.484 L 7.521,-9.484 C 8.061,-9.484 8.5,-9.044 8.5,-8.503 L 8.5,-0.981 C 8.5,-0.44 8.061,0 7.521,0 L 0,0 z"
         style="fill:#ffffff;fill-opacity:1;fill-rule:nonzero;stroke:none"
         id="path2624" />
    </g>
    <g
       id="g2626"
       transform="matrix(25.897825,0,0,-25.897825,225.38877,0)">
      <path
         d="M 0,0 L -7.521,0 C -8.174,0 -8.703,-0.529 -8.703,-1.182 L -8.703,-8.703 C -8.703,-9.355 -8.174,-9.885 -7.521,-9.885 L 0,-9.885 C 0.652,-9.885 1.18,-9.355 1.18,-8.703 L 1.18,-1.182 C 1.18,-0.529 0.652,0 0,0"
         style="fill:#000000;fill-opacity:1;fill-rule:nonzero;stroke:none"
         id="path2628" />
    </g>
    <g
       id="g2630"
       transform="matrix(25.897825,0,0,-25.897825,46.253515,151.44281)">
      <path
         d="M 0,0 L -0.513,0.346 C -0.513,0.346 1.614,0.98 2.921,0.98 C 3.817,0.98 4.592,1.232 4.294,1.755 C 3.995,2.277 3.995,3.732 5.188,3.658 C 5.188,3.658 6.011,3.658 6.085,2.875 C 6.085,2.875 6.021,2.586 7.103,2.361 C 7.103,2.361 7.289,2.25 6.953,2.1 C 6.953,2.1 5.311,2.213 5.46,1.802 C 5.46,1.802 5.423,1.445 5.974,1.232 C 6.915,0.868 7.858,-2.146 3.929,-1.857 C 3.929,-1.857 2.39,-1.792 1.157,-1.082 C 1.157,-1.082 -0.252,-0.439 -0.812,-0.289 L 0,0 z"
         style="fill:#ffffff;fill-opacity:1;fill-rule:nonzero;stroke:none"
         id="path2632" />
    </g>
  </g>
</svg>
